src/symbolic/status/location-services-disabled-symbolic.svg

<svg xmlns="http://www.w3.org/2000/svg" width="16" height="16">
    <g fill="#555555">
        <path d="M1.531.469L.47 1.53l14 14 1.062-1.062z"/>
        <path d="M3.025 5.498A5.067 5.067 0 003 6c0 .173.014.332.031.5.014.167.036.336.063.5C3.666 10.514 6 13.004 8 15.004c.714-.714 1.47-1.494 2.174-2.358zM8 1C6.103 1 4.472 2.069 3.625 3.625L6 6a2 2 0 112 2l3.213 3.213c.795-1.228 1.432-2.61 1.693-4.213.027-.164.049-.333.063-.5.017-.168.031-.327.031-.5a5 5 0 00-5-5z" style="isolation:auto;mix-blend-mode:normal;solid-color:#000;solid-opacity:1;marker:none" color="#000" overflow="visible"/>
    </g>
</svg>

<svg width="16" height="16" version="1.1" xmlns="http://www.w3.org/2000/svg">
 <path d="m1.531 0.469-1.061 1.061 14 14 1.062-1.062z" fill="#555555"/>
 <path d="M 3.025,5.498 A 5.067,5.067 0 0 0 3,6 C 3,6.173 3.014,6.332 3.031,6.5 3.045,6.667 3.067,6.836 3.094,7 3.666,10.514 6,13.004 8,15.004 8.714,14.29 9.47,13.51 10.174,12.646 Z M 8,1 C 6.103,1 4.472,2.069 3.625,3.625 L 6,6 a 2,2 0 1 1 2,2 l 3.213,3.213 C 12.008,9.985 12.645,8.603 12.906,7 12.933,6.836 12.955,6.667 12.969,6.5 12.986,6.332 13,6.173 13,6 A 5,5 0 0 0 8,1 Z" color="#000000" fill="#555555" overflow="visible" solid-color="#000000" style="isolation:auto;mix-blend-mode:normal"/>
</svg>
